X:1
T:Title
%%score { 1 | 2 }
L:1/8
M:3/4
K:F
V:1 treble nm="Grand Piano"
V:2 bass 
V:1
 z2 z2[Q:1/4=100] [FA]>[GB] | [Ac][Ac] [Af]3 [Bd] | [Bd] [Ac]3 [Bd]>[Ac] | [Ac]3 A AG | %4
[M:2/4] [EG]4 |[M:1/4] [FA]>[GB] |[M:3/4] [Ac][Ac] [Af]3 [Bd] | [Bd] [Ac]3 d>c | c3 A [EG]F | %9
[M:2/4] F4 |[M:1/4] A>A |[M:3/4] [EG]3 [FA] [GB][GB] | [GB] A3 A>A | [EG]3 [EB] [EB][EB] | %14
 A>B c2 A>[GB] | [Ac][Ac] [Af]3 [Bd] | [Bd] [Bf]3 [Bd]>[Ac] | [Ac]3 [FA] [EG]F |[M:2/4] F4 | %19
[M:1/4] A>A |[M:3/4] [EG]3 [FA] [GB][GB] | [GB] A3 A>A | [EG]3 [EB] [EB][EB] | A>B c2 A>[GB] | %24
 [Ac][Ac] [Af]3 [Bd] | [Bd] [Bf]3 [Bd]>[Ac] | [Ac]3 [FA] [EG]F |[M:2/4] F4 |] %28
V:2
 z2 z2 [F,C]>[F,C] | [F,C][F,C] [F,C]3 [F,B,] | [F,B,] [F,C]3 [F,C]>[F,C] | %3
 [F,C]3 [F,CF] [F,CF][F,CE] |[M:2/4] [C,C]4 |[M:1/4] [F,C]>[F,C] | %6
[M:3/4] [F,C][F,C] [F,C]3 [F,B,] | [F,B,] [F,C]3 [F,CF]>[F,CF] | [F,CF]3 [F,CF] [C,C][F,A,] | %9
[M:2/4] [F,A,]4 |[M:1/4] [F,CF]>[F,CF] |[M:3/4] [C,C]3 [C,C] [C,C][C,C] | %12
 [C,C] [F,CF]3 [F,CF]>[F,CF] | [C,C]3 [C,C] [C,C][C,C] | [F,CF]4 [F,CF]>[F,C] | %15
 [F,C][F,C] [F,C]3 [B,,B,] | [B,,B,] [B,,B,]3 [D,D]>[D,C] | [F,C]3 [F,C] [C,C][F,A,C] | %18
[M:2/4] [F,A,C]4 |[M:1/4] [F,CF]>[F,CF] |[M:3/4] [C,C]3 [C,C] [C,C][C,C] | %21
 [C,C] [F,CF]3 [F,CF]>[F,CF] | [C,C]3 [C,C] [C,C][C,C] | [F,CF]4 [F,CF]>[F,C] | %24
 [F,C][F,C] [F,C]3 [B,,B,] | [B,,B,] [B,,B,]3 [D,D]>[D,C] | [F,C]3 [F,C] [C,C][F,A,C] | %27
[M:2/4] [F,A,C]4 |] %28

